!!!!SEGMENT: pl-kk--kk-i-371--003_anonim--omni-die-dic-mariae.krn
!!!cenid: 17xx:2060
!!!COM: Anonim
!!!COM-rism: pe30004985
!!!CDT:
!!!CNT:
!!!OTL: Omni die dic Mariae
!!!PDT:
!!!AGN: Sacred
!!!SMS-siglum: PL-Kk
!!!SMS-shelfmark: Kk.I.371
!!!NIFC-rismID: 1001143608
!!!URL-scan: http://repozytorium.nifc.pl/skany/pl-kk-nut--i-371
!!!ONB-nifc: UWAGA: utwory w zbiorze: 1. Illustre Sidus coelitus, 2. Antra deserti teneris sub annis, 3. Omni die dic Mariae
!!!SMS-variant:
!!!SMS-altvar:
**kern	**text	**text	**text	**text	**text	**text	**kern	**text	**text	**text	**text	**text	**text	**kern	**text	**text	**text	**text	**text	**text	**kern	**text	**text	**text	**text	**text	**text
*part4	*part4	*part4	*part4	*part4	*part4	*part4	*part3	*part3	*part3	*part3	*part3	*part3	*part3	*part2	*part2	*part2	*part2	*part2	*part2	*part2	*part1	*part1	*part1	*part1	*part1	*part1	*part1
*staff4	*staff4	*staff4	*staff4	*staff4	*staff4	*staff4	*staff3	*staff3	*staff3	*staff3	*staff3	*staff3	*staff3	*staff2	*staff2	*staff2	*staff2	*staff2	*staff2	*staff2	*staff1	*staff1	*staff1	*staff1	*staff1	*staff1	*staff1
*I"Basso	*	*	*	*	*	*	*I"Tenore	*	*	*	*	*	*	*I"Alto	*	*	*	*	*	*	*I"Canto	*	*	*	*	*	*
*I'B.	*	*	*	*	*	*	*I'T.	*	*	*	*	*	*	*I'A.	*	*	*	*	*	*	*I'C.	*	*	*	*	*	*
*clefF4	*	*	*	*	*	*	*clefC4	*	*	*	*	*	*	*clefC3	*	*	*	*	*	*	*clefC1	*	*	*	*	*	*
*k[b-]	*	*	*	*	*	*	*k[b-]	*	*	*	*	*	*	*k[b-]	*	*	*	*	*	*	*k[b-]	*	*	*	*	*	*
*M3/2	*	*	*	*	*	*	*M3/2	*	*	*	*	*	*	*M3/2	*	*	*	*	*	*	*M3/2	*	*	*	*	*	*
=1	=1	=1	=1	=1	=1	=1	=1	=1	=1	=1	=1	=1	=1	=1	=1	=1	=1	=1	=1	=1	=1	=1	=1	=1	=1	=1	=1
2r	.	.	.	.	.	.	2r	.	.	.	.	.	.	2r	.	.	.	.	.	.	2r	.	.	.	.	.	.
*	*	*	*	*	*	*	*2\right	*	*	*	*	*	*	*2\right	*	*	*	*	*	*	*2\right	*	*	*	*	*	*
2C/	O-	Con-	Ip-	Haec	Lin-	Si-	2e-X\	O-	Con-	Ip-	Haec	Lin-	Si-	2g\	O-	Con-	Ip-	Haec	Lin-	Si-	2cc\	O-	Con-	Ip-	Haec	Lin-	Si-
2BB#X/	-mni	-tem-	-sam	Per-	-gua	-ne	2d\	-mni	-tem-	-sam	Per-	-gua	-ne	2g\	-mni	-tem-	-sam	Per-	-gua	-ne	2dd\	-mni	-tem-	-sam	Per-	-gua	-ne
=2	=2	=2	=2	=2	=2	=2	=2	=2	=2	=2	=2	=2	=2	=2	=2	=2	=2	=2	=2	=2	=2	=2	=2	=2	=2	=2	=2
2C/	di-	-pla-	co-	-so-	me-	fi-	2c\	di-	-pla-	co-	-so-	me-	fi-	2g\	di-	-pla-	co-	-so-	me-	fi-	2ee-X\	di-	-pla-	co-	-so-	me-	fi-
*2\right	*	*	*	*	*	*	*	*	*	*	*	*	*	*	*	*	*	*	*	*	*	*	*	*	*	*	*
!	!	!	!	!	!	!	!	!	!	!	!	!	!	!	!	!	!	!	!	!	!LO:N:acc=#	!	!	!	!	!	!
2G\	-e	-re	-le	-na	-a	-ne	2d\	-e	-re	-le	-na	-a	-ne	2g\	-e	-re	-le	-na	-a	-ne	2bn\	-e	-re	-le	-na	-a	-ne
2A-X\	dic	et	ut	No-	dic	dic	2c\	dic	et	ut	No-	dic	dic	2e-X\	dic	et	ut	No-	dic	dic	2cc\	dic	et	ut	No-	dic	dic
=3	=3	=3	=3	=3	=3	=3	=3	=3	=3	=3	=3	=3	=3	=3	=3	=3	=3	=3	=3	=3	=3	=3	=3	=3	=3	=3	=3
2F\	Ma-	mi-	de	-bis	tro-	Re-	2c\	Ma-	mi-	de	-bis	tro-	Re-	2e\	Ma-	mi-	de	-bis	tro-	Re-	2a-X\	Ma-	mi-	de	-bis	tro-	Re-
1BB-/	ri-	-ra-	mol-	do-	-phe-	-gi-	1B-\	ri-	-ra-	mol-	do-	-phe-	-gi-	1d\	ri-	-ra-	mol-	do-	-phe-	-gi-	4a-\	ri-	-ra-	mol-	do-	-phe-	-gi-
.	.	.	.	.	.	.	.	.	.	.	.	.	.	.	.	.	.	.	.	.	4g\	.	.	.	.	.	.
.	.	.	.	.	.	.	.	.	.	.	.	.	.	.	.	.	.	.	.	.	4a-\	.	.	.	.	.	.
.	.	.	.	.	.	.	.	.	.	.	.	.	.	.	.	.	.	.	.	.	4b-\	.	.	.	.	.	.
=4-	=4	=4	=4	=4	=4	=4	=4	=4	=4	=4	=4	=4	=4	=4	=4	=4	=4	=4	=4	=4	=4-	=4	=4	=4	=4	=4	=4
1.E-X\	-ae	-re	-le	-na	-a	-nae	1.B-\	-ae	-re	-le	-na	-a	-nae	1.e\	-ae	-re	-le	-na	-a	-nae	1.g\	-ae	-re	-le	-na	-a	-nae
=5	=5	=5	=5	=5	=5	=5	=5	=5	=5	=5	=5	=5	=5	=5	=5	=5	=5	=5	=5	=5	=5	=5	=5	=5	=5	=5	=5
!	!	!	!	!	!	!	!	!	!	!	!	!	!	!LO:SIC:o:s:t:v= nuty niewidoczne	!	!	!	!	!	!	!	!	!	!	!	!	!
!	!	!	!	!	!	!	!	!	!	!	!	!	!	!LO:TX:b:t=mea laudes anima Eius festa eius ges\neius celsitudinem dic felicem Genitri\ncriminum le liberet Hanc appella ne procel\ncontulit coelestia Haec Regina nos divi\nVirginis puerperae Quae inflictum Maledi\nMundi Laudum cantica Eius dona Semper so	!	!	!	!	!	!	!	!	!	!	!	!	!
2.E\	me-	e-	cri-	con-	Vir-	Mun-	2.G/	.	.	.	.	.	.	1.ryy	.	.	.	.	.	.	2.b-\	me-	e-	cri-	con-	Vir-	Mun-
!	!	!	!	!	!	!	!LO:TX:b:t=mea laudes anima Eius festa e\neius celsitudinem dic felicem gei\ncriminum le liberet Hanc appella ne \ncontulit coelestia Haec Regina nos\nVirginis puerperae Quae inflictum Ma\nMundi Laudum cantica Eius dona Sem	!	!	!	!	!	!	!	!	!	!	!	!	!	!	!	!	!	!	!	!
!	!	!	!	!	!	!	!LO:TX:a:t=P:problem: nuty niewidoczne	!	!	!	!	!	!	!	!	!	!	!	!	!	!	!	!	!	!	!	!
4F\	-a	-ius	-mi	-tu	-gi	-di	4ryy	.	.	.	.	.	.	.	.	.	.	.	.	.	4b-X\	-a	-ius	-mi-	-tu-	-gi-	-di
!LO:TX:b:t=laudes anima Eius festa e\ncelsitudinem dic felicem gei\nnum le liberet Hanc appella ne \nlit coelestia Haec Regina nos\nnis puerperae Quae inflictum Ma\nLaudum cantica Eius dona Sem	!	!	!	!	!	!	!	!	!	!	!	!	!	!	!	!	!	!	!	!	!	!	!	!	!	!	!
2ryy	.	.	.	.	.	.	2ryy	.	.	.	.	.	.	.	.	.	.	.	.	.	1g\	Lau-	cel-	-num	-lit	-nis	Lau-
=6	=6	=6	=6	=6	=6	=6	=6	=6	=6	=6	=6	=6	=6	=6	=6	=6	=6	=6	=6	=6	=6	=6	=6	=6	=6	=6	=6
1.ryy	.	.	.	.	.	.	1.ryy	.	.	.	.	.	.	1.ryy	.	.	.	.	.	.	.	-des	-si-	le	coe-	pu-	-dum
.	.	.	.	.	.	.	.	.	.	.	.	.	.	.	.	.	.	.	.	.	2.f/	a-	-tu-	li-	-le-	-er-	can-
.	.	.	.	.	.	.	.	.	.	.	.	.	.	.	.	.	.	.	.	.	4g/	-ni-	-di-	-be-	-sti-	-pe-	-ti-
=7	=7	=7	=7	=7	=7	=7	=7	=7	=7	=7	=7	=7	=7	=7	=7	=7	=7	=7	=7	=7	=7	=7	=7	=7	=7	=7	=7
1.ryy	.	.	.	.	.	.	1.G/	.	.	.	.	.	.	1.ryy	.	.	.	.	.	.	2e-X/	-ma	-nem	-ret	-a	-rae	-ca
!	!	!	!	!	!	!	!	!	!	!	!	!	!	!	!	!	!	!	!	!	!LO:TX:a:t=P:problem: nuty niewidoczne	!	!	!	!	!	!
!	!	!	!	!	!	!	!	!	!	!	!	!	!	!	!	!	!	!	!	!	!LO:TX:b:t=Eius festa eius ges\ndic felicem Genitri\nHanc appella ne procel\nHaec Regina nos divi\nQuae inflictum Maledi\nEius dona Semper so	!	!	!	!	!	!
.	.	.	.	.	.	.	.	.	.	.	.	.	.	.	.	.	.	.	.	.	2ryy	.	.	.	.	.	.
.	.	.	.	.	.	.	.	.	.	.	.	.	.	.	.	.	.	.	.	.	2ryy	.	.	.	.	.	.
=8	=8	=8	=8	=8	=8	=8	=8	=8	=8	=8	=8	=8	=8	=8	=8	=8	=8	=8	=8	=8	=8	=8	=8	=8	=8	=8	=8
1.ryy	.	.	.	.	.	.	1.ryy	.	.	.	.	.	.	1.ryy	.	.	.	.	.	.	1.ryy	.	.	.	.	.	.
=9	=9	=9	=9	=9	=9	=9	=9	=9	=9	=9	=9	=9	=9	=9	=9	=9	=9	=9	=9	=9	=9	=9	=9	=9	=9	=9	=9
2ryy	.	.	.	.	.	.	2ryy	.	.	.	.	.	.	1.ryy	.	.	.	.	.	.	1.ryy	.	.	.	.	.	.
2ryy	.	.	.	.	.	.	2ryy	.	.	.	.	.	.	.	.	.	.	.	.	.	.	.	.	.	.	.	.
2A-X\	ius	ni-	pro-	di-	le-	per	2c\	ius	ni-	pro-	di-	le-	per	.	.	.	.	.	.	.	.	.	.	.	.	.	.
=10	=10	=10	=10	=10	=10	=10	=10	=10	=10	=10	=10	=10	=10	=10	=10	=10	=10	=10	=10	=10	=10	=10	=10	=10	=10	=10	=10
1G\	ge-	-tri-	-cel-	-vi-	-di-	so-	1d\	ge-	-tri-	-cel-	-vi-	-di-	so-	2ryy	.	.	.	.	.	.	2ryy	.	.	.	.	.	.
.	.	.	.	.	.	.	.	.	.	.	.	.	.	2ryy	.	.	.	.	.	.	2ryy	.	.	.	.	.	.
2G\	-sta	-cem	-la	-na	-ctum	-na	2c\	-sta	-cem	-la	-na	-ctum	-na	2g\	sta	cem	la	na	ctum	na	2b-\	sta	cem	la	na	ctum	na
=11	=11	=11	=11	=11	=11	=11	=11	=11	=11	=11	=11	=11	=11	=11	=11	=11	=11	=11	=11	=11	=11	=11	=11	=11	=11	=11	=11
2.C/	co-	dic	Vi-	il-	mi-	sem-	2.c\	co-	dic	Vi-	il-	mi-	sem-	2.g\	co-	dic	Vi-	il-	mi-	sem-	2.ee-X\	co-	dic	Vi-	il-	mi-	sem-
4D/	-le	Be-	-ti-	-lu-	-ro	-per	4B-\	-le	Be-	-ti-	-lu-	-ro	-per	4g\	-le	Be-	-ti-	-lu-	-ro	-per	4dd\	-le	Be-	-ti-	-lu-	-ro	-per
2E-X\	de-	-a-	-o-	-stra-	tran-	il-	2G/	de-	-a-	-o-	-stra-	tran-	il-	2g\	de-	-a-	-o-	-stra-	tran-	il-	2cc\	de-	-a-	-o-	-stra-	tran-	il-
=12	=12	=12	=12	=12	=12	=12	=12	=12	=12	=12	=12	=12	=12	=12	=12	=12	=12	=12	=12	=12	=12	=12	=12	=12	=12	=12	=12
2G\	-vo-	-tam	-rum	-vit	-sfert	-lam	2B-\	-vo-	-tam	-rum	-vit	-sfert	-lam	2g\	-vo-	-tam	-rum	-vit	-sfert	-lam	2b-\	-vo-	-tam	-rum	-vit	-sfert	-lam
2C/	-tiſ-	Vir-	su-	gra-	ger-	prae-	2.d\	-tiſ-	Vir-	su-	gra-	ger-	prae-	2.g\	-tiſ-	Vir-	su-	gra-	ger-	prae-	2.a\	-tiſ-	Vir-	su-	gra-	ger-	prae-
2D/	-si-	-gi-	-pe-	-ti-	-mi-	-di-	.	.	.	.	.	.	.	.	.	.	.	.	.	.	.	.	.	.	.	.	.
!	!	!	!	!	!	!	!	!	!	!	!	!	!	!LO:TX:a:t=P:problem:# above	!	!	!	!	!	!	!	!	!	!	!	!	!
.	.	.	.	.	.	.	4d\	-si-	-gi-	-pe-	-ti-	-mi-	-di-	4f#\	-si-	-gi-	-pe-	-ti-	-mi-	-di-	4a\	-si-	-gi-	-pe-	-ti-	-mi-	-di-
=13	=13	=13	=13	=13	=13	=13	=13	=13	=13	=13	=13	=13	=13	=13	=13	=13	=13	=13	=13	=13	=13	=13	=13	=13	=13	=13	=13
1.GG/	-ma	-nem.	-ret	-a	-ne	-ca	1.Bn\	-ma	-nem.	-ret	-a	-ne	-ca	1.g\	-ma	-nem.	-ret	-a	-ne	-ca	1.g\	-ma	-nem.	-ret	-a	-ne	-ca
=14	=14	=14	=14	=14	=14	=14	=14	=14	=14	=14	=14	=14	=14	=14	=14	=14	=14	=14	=14	=14	=14-	=14	=14	=14	=14	=14	=14
*	*ij	*ij	*ij	*ij	*ij	*ij	*ij	*ij	*ij	*ij	*ij	*ij	*ij	*	*ij	*ij	*ij	*ij	*ij	*ij	*	*ij	*ij	*ij	*ij	*ij	*ij
!	!	!	!	!	!	!	!	!	!	!	!	!	!	!	!	!	!	!	!	!	!LO:N:acc=#	!	!	!	!	!	!
2.G\	co-	dic	Vi-	il-	mi-	sem-	2.d\	co-	dic	Vi-	il-	mi-	sem-	2.g\	co-	dic	Vi-	il-	mi-	sem-	2.bn\	co-	dic	Vi-	il-	mi-	sem-
4F\	-le	Be-	-ti-	-lu-	-ro	-per	4d\	-le	Be-	-ti-	-lu-	-ro	-per	4g\	-le	Be-	-ti-	-lu-	-ro	-per	4b\	-le	Be-	-ti-	-lu-	-ro	-per
2E-X\	de-	-a-	-o-	-stra-	tran-	il-	2c\	de-	-a-	-o-	-stra-	tran-	il-	2g\	de-	-a-	-o-	-stra-	tran-	il-	2cc\	de-	-a-	-o-	-stra-	tran-	il-
=15-	=15	=15	=15	=15	=15	=15	=15	=15	=15	=15	=15	=15	=15	=15	=15	=15	=15	=15	=15	=15	=15	=15	=15	=15	=15	=15	=15
2C/	-vo-	-tam	-rum	-vit	-sfert	-lam	2c\	-vo-	-tam	-rum	-vit	-sfert	-lam	2e-X\	-vo-	-tam	-rum	-vit	-sfert	-lam	2ee-X\	-vo-	-tam	-rum	-vit	-sfert	-lam
2.G\	-tiſ-	Vir-	su-	gra-	ger-	prae-	2.c\	-tiſ-	Vir-	su-	gra-	ger-	prae-	2g\	-tiſ-	Vir-	su-	gra-	ger-	prae-	2.dd\	-tiſ-	Vir-	su-	gra-	ger-	prae-
.	.	.	.	.	.	.	.	.	.	.	.	.	.	2r\yy	-si-	-gi-	-pe-	-ti-	-mi-	-di-	.	.	.	.	.	.	.
4A\	-si-	-gi-	-pe-	-ti-	-mi-	-di-	4B#X\	-si-	-gi-	-pe-	-ti-	-mi-	-di-	.	.	.	.	.	.	.	4dd\	-si-	-gi-	-pe-	-ti-	-mi-	-di-
=16	=16	=16	=16	=16	=16	=16	=16-	=16	=16	=16	=16	=16	=16	=16	=16	=16	=16	=16	=16	=16	=16	=16	=16	=16	=16	=16	=16
1.C/	-ma	-nem	-ret	-a	-ne	-ca	1.c\	-ma	-nem	-ret	-a	-ne	-ca	1.ryy	-ma	-nem	-ret	-a	-ne	-ca	1.cc\	-ma	-nem	-ret	-a	-ne	-ca
*	*Xij	*Xij	*Xij	*Xij	*Xij	*Xij	*	*Xij	*Xij	*Xij	*Xij	*Xij	*Xij	*	*Xij	*Xij	*Xij	*Xij	*Xij	*Xij	*	*Xij	*Xij	*Xij	*Xij	*Xij	*Xij
!LO:LB:g=original	!	!	!	!	!	!	!LO:LB:g=original	!	!	!	!	!	!	!LO:LB:g=original	!	!	!	!	!	!	!LO:LB:g=original	!	!	!	!	!	!
=17||	=17||	=17||	=17||	=17||	=17||	=17||	=17||	=17||	=17||	=17||	=17||	=17||	=17||	=17||	=17||	=17||	=17||	=17||	=17||	=17||	=17||	=17||	=17||	=17||	=17||	=17||	=17||
*M4/4	*	*	*	*	*	*	*M4/4	*	*	*	*	*	*	*M4/4	*	*	*	*	*	*	*M4/4	*	*	*	*	*	*
*met(c)	*	*	*	*	*	*	*met(c)	*	*	*	*	*	*	*met(c)	*	*	*	*	*	*	*met(c)	*	*	*	*	*	*
2.G\	Om-	.	.	.	.	.	4G/	Om-	.	.	.	.	.	2.d\	Om-	.	.	.	.	.	4b-\	Om-	.	.	.	.	.
.	.	.	.	.	.	.	4A\	.	.	.	.	.	.	.	.	.	.	.	.	.	4cc\	.	.	.	.	.	.
.	.	.	.	.	.	.	2B-\	nes	.	.	.	.	.	.	.	.	.	.	.	.	2dd\	-nes	.	.	.	.	.
4F\	-nes	.	.	.	.	.	.	.	.	.	.	.	.	4d\	-nes	.	.	.	.	.	.	.	.	.	.	.	.
=18	=18	=18	=18	=18	=18	=18	=18	=18	=18	=18	=18	=18	=18	=18	=18	=18	=18	=18	=18	=18	=18	=18	=18	=18	=18	=18	=18
2E-X\	me-	.	.	.	.	.	2c\	Me-	.	.	.	.	.	2e-\	Me-	.	.	.	.	.	4g/	me-	.	.	.	.	.
.	.	.	.	.	.	.	.	.	.	.	.	.	.	.	.	.	.	.	.	.	4a,<\	-i	.	.	.	.	.
2D/	-i	.	.	.	.	.	2d\	-i	.	.	.	.	.	2f\	-i	.	.	.	.	.	2b#X\	Sen-	.	.	.	.	.
=19	=19	=19	=19	=19	=19	=19	=19	=19	=19	=19	=19	=19	=19	=19	=19	=19	=19	=19	=19	=19	=19	=19	=19	=19	=19	=19	=19
4C/	Sen-	.	.	.	.	.	4G/	Sen-	.	.	.	.	.	4g\	Sen-	.	.	.	.	.	4cc\	-sus	.	.	.	.	.
4BB-/	-sus	.	.	.	.	.	4G/	-sus	.	.	.	.	.	4g\	-sus	.	.	.	.	.	4dd\	.	.	.	.	.	.
2AAn/	E-	.	.	.	.	.	2A/	e-	.	.	.	.	.	4g\	E-	.	.	.	.	.	2cc\	Ei	.	.	.	.	.
.	.	.	.	.	.	.	.	.	.	.	.	.	.	4f#X\	.	.	.	.	.	.	.	.	.	.	.	.	.
=20	=20	=20	=20	=20	=20	=20	=20	=20	=20	=20	=20	=20	=20	=20	=20	=20	=20	=20	=20	=20	=20	=20	=20	=20	=20	=20	=20
4GG/	-i	.	.	.	.	.	4B-,<\	-i	.	.	.	.	.	2g\	-i	.	.	.	.	.	2b-\	.	.	.	.	.	.
8G\	per-	.	.	.	.	.	8B-\	per-	.	.	.	.	.	.	.	.	.	.	.	.	.	.	.	.	.	.	.
8A\	-so-	.	.	.	.	.	8c\	-so-	.	.	.	.	.	.	.	.	.	.	.	.	.	.	.	.	.	.	.
2.B-\	-na-	.	.	.	.	.	2.d\	-na-	.	.	.	.	.	4r	.	.	.	.	.	.	4r	.	.	.	.	.	.
.	.	.	.	.	.	.	.	.	.	.	.	.	.	8f\	per-	.	.	.	.	.	8dd\	per-	.	.	.	.	.
.	.	.	.	.	.	.	.	.	.	.	.	.	.	8g\	-so-	.	.	.	.	.	8ee\	-so-	.	.	.	.	.
=21	=21	=21	=21	=21	=21	=21	=21	=21	=21	=21	=21	=21	=21	=21	=21	=21	=21	=21	=21	=21	=21	=21	=21	=21	=21	=21	=21
.	.	.	.	.	.	.	.	.	.	.	.	.	.	4d\	-na-	.	.	.	.	.	2.ff\	-na-	.	.	.	.	.
4F\	-te	.	.	.	.	.	4c\	-te	.	.	.	.	.	4a\	-te	.	.	.	.	.	.	.	.	.	.	.	.
2.G\	glo-	.	.	.	.	.	4B#X\	glo-	.	.	.	.	.	2g.\	glo-	.	.	.	.	.	.	.	.	.	.	.	.
.	.	.	.	.	.	.	2c\	.	.	.	.	.	.	.	.	.	.	.	.	.	4ee-X\	-te	.	.	.	.	.
=22	=22	=22	=22	=22	=22	=22	=22	=22	=22	=22	=22	=22	=22	=22	=22	=22	=22	=22	=22	=22	=22	=22	=22	=22	=22	=22	=22
.	.	.	.	.	.	.	.	.	.	.	.	.	.	.	.	.	.	.	.	.	4.dd\	glo-	.	.	.	.	.
4G\	-ri-	.	.	.	.	.	4B#X\	-ri-	.	.	.	.	.	4g\	-ri-	.	.	.	.	.	.	.	.	.	.	.	.
.	.	.	.	.	.	.	.	.	.	.	.	.	.	.	.	.	.	.	.	.	8dd\	-ri-	.	.	.	.	.
4C,/	-am	.	.	.	.	.	2c\	-am	.	.	.	.	.	4e\	-am	.	.	.	.	.	2cc\	-am	.	.	.	.	.
*	*ij	*	*	*	*	*	*	*	*	*	*	*	*	*	*ij	*	*	*	*	*	*	*	*	*	*	*	*
8C/	-per-	.	.	.	.	.	.	.	.	.	.	.	.	8e-X\	per-	.	.	.	.	.	.	.	.	.	.	.	.
8D\	-so-	.	.	.	.	.	.	.	.	.	.	.	.	8f\	-so-	.	.	.	.	.	.	.	.	.	.	.	.
=23	=23	=23	=23	=23	=23	=23	=23	=23	=23	=23	=23	=23	=23	=23	=23	=23	=23	=23	=23	=23	=23	=23	=23	=23	=23	=23	=23
2.E-X\	-na-	.	.	.	.	.	4r	.	.	.	.	.	.	2.g\	-na-	.	.	.	.	.	4r	.	.	.	.	.	.
*	*	*	*	*	*	*	*	*ij	*	*	*	*	*	*	*	*	*	*	*	*	*	*ij	*	*	*	*	*
.	.	.	.	.	.	.	8G/	per-	.	.	.	.	.	.	.	.	.	.	.	.	8b-\	per-	.	.	.	.	.
.	.	.	.	.	.	.	8A/	-so-	.	.	.	.	.	.	.	.	.	.	.	.	8cc\	-so-	.	.	.	.	.
.	.	.	.	.	.	.	2.B-\	-na-	.	.	.	.	.	.	.	.	.	.	.	.	4dd\	-na-	.	.	.	.	.
4BB-/	-te	.	.	.	.	.	.	.	.	.	.	.	.	4f\	-te	.	.	.	.	.	4dd\	-te	.	.	.	.	.
=24	=24	=24	=24	=24	=24	=24	=24	=24	=24	=24	=24	=24	=24	=24	=24	=24	=24	=24	=24	=24	=24	=24	=24	=24	=24	=24	=24
2.C/	glo-	.	.	.	.	.	.	.	.	.	.	.	.	4e\	glo-	.	.	.	.	.	2.cc\	glo-	.	.	.	.	.
.	.	.	.	.	.	.	4A-X/	-te	.	.	.	.	.	2f\	.	.	.	.	.	.	.	.	.	.	.	.	.
.	.	.	.	.	.	.	4.G/	glo-	.	.	.	.	.	.	.	.	.	.	.	.	.	.	.	.	.	.	.
4C/	-ri-	.	.	.	.	.	.	.	.	.	.	.	.	4e\	-ri-	.	.	.	.	.	4cc\	-ri-	.	.	.	.	.
.	.	.	.	.	.	.	8G/	-ri-	.	.	.	.	.	.	.	.	.	.	.	.	.	.	.	.	.	.	.
=25	=25	=25	=25	=25	=25	=25	=25	=25	=25	=25	=25	=25	=25	=25	=25	=25	=25	=25	=25	=25	=25	=25	=25	=25	=25	=25	=25
4FF,</	-am	.	.	.	.	.	2A,</	-am	.	.	.	.	.	4f,<\	-am	.	.	.	.	.	2cc\	-am	.	.	.	.	.
*	*Xij	*	*	*	*	*	*	*Xij	*	*	*	*	*	*	*Xij	*	*	*	*	*	*	*Xij	*	*	*	*	*
8F\	-fre-	.	.	.	.	.	.	.	.	.	.	.	.	8a\	fre-	.	.	.	.	.	.	.	.	.	.	.	.
8E\	-quen-	.	.	.	.	.	.	.	.	.	.	.	.	8g\	-quen-	.	.	.	.	.	.	.	.	.	.	.	.
8D\	-ta-	.	.	.	.	.	8A/	fre-	.	.	.	.	.	8f\	-ta-	.	.	.	.	.	8dd\	fre-	.	.	.	.	.
8D\	-te	.	.	.	.	.	8A/	-quen-	.	.	.	.	.	8f\	-te	.	.	.	.	.	8cc\	-quen-	.	.	.	.	.
8G\	tam	.	.	.	.	.	8B-\	-ta-	.	.	.	.	.	8d\	tam	.	.	.	.	.	8b-\	-ta-	.	.	.	.	.
8F\	Be-	.	.	.	.	.	8B-\	-te	.	.	.	.	.	8d\	be-	.	.	.	.	.	8b-\	-te	.	.	.	.	.
=26	=26	=26	=26	=26	=26	=26	=26	=26	=26	=26	=26	=26	=26	=26	=26	=26	=26	=26	=26	=26	=26	=26	=26	=26	=26	=26	=26
8E\	-a-	.	.	.	.	.	8c\	tam	.	.	.	.	.	8g\	-a-	.	.	.	.	.	8g\	tam	.	.	.	.	.
8E\	-tae	.	.	.	.	.	8c\	be-	.	.	.	.	.	8f,<\	-tae	.	.	.	.	.	8g\	Be-	.	.	.	.	.
*	*ij	*	*	*	*	*	*	*	*	*	*	*	*	*	*ij	*	*	*	*	*	*	*	*	*	*	*	*
8A\	fre-	.	.	.	.	.	8c\	-a-	.	.	.	.	.	8e\	fre-	.	.	.	.	.	8cc\	-a-	.	.	.	.	.
8G\	-quen-	.	.	.	.	.	8c,<\	-tae	.	.	.	.	.	8e\	-quen-	.	.	.	.	.	8cc,<\	-tae	.	.	.	.	.
*	*	*	*	*	*	*	*	*ij	*	*	*	*	*	*	*	*	*	*	*	*	*	*ij	*	*	*	*	*
8F\	-ta-	.	.	.	.	.	8c\	fre-	.	.	.	.	.	8a\	-ta-	.	.	.	.	.	8a\	fre-	.	.	.	.	.
8F\	-te	.	.	.	.	.	8c\	-quen-	.	.	.	.	.	8g\	-te	.	.	.	.	.	8a\	-quen-	.	.	.	.	.
8B-\	tam	.	.	.	.	.	8B-\	-ta-	.	.	.	.	.	8f\	tam	.	.	.	.	.	8dd\	-ta-	.	.	.	.	.
8A\	Be-	.	.	.	.	.	8c\	-te	.	.	.	.	.	8f\	Be-	.	.	.	.	.	8cc\	-te	.	.	.	.	.
=27	=27	=27	=27	=27	=27	=27	=27	=27	=27	=27	=27	=27	=27	=27	=27	=27	=27	=27	=27	=27	=27	=27	=27	=27	=27	=27	=27
4G\	-a-	.	.	.	.	.	8d\	tam	.	.	.	.	.	8g\	-a-	.	.	.	.	.	8b-\	tam	.	.	.	.	.
!	!	!	!	!	!	!	!LO:SIC:v:t=custos d	!	!	!	!	!	!	!LO:SIC:v:t=custos f	!	!	!	!	!	!	!	!	!	!	!	!	!
.	.	.	.	.	.	.	8d\	be-	.	.	.	.	.	8d\	-tae	.	.	.	.	.	8b-\	Be-	.	.	.	.	.
*	*	*	*	*	*	*	*	*	*	*	*	*	*	*	*Xij	*	*	*	*	*	*	*	*	*	*	*	*
!	!	!	!	!	!	!	!LO:LB:g=original	!	!	!	!	!	!	!LO:LB:g=original	!	!	!	!	!	!	!	!	!	!	!	!	!
!LO:SIC:v:t=custos a	!	!	!	!	!	!	!	!	!	!	!	!	!	!	!	!	!	!	!	!	!	!	!	!	!	!	!
4F\	-tae	.	.	.	.	.	8d\	-a-	.	.	.	.	.	4f\	Vir-	.	.	.	.	.	8b-\	-a-	.	.	.	.	.
.	.	.	.	.	.	.	8d\	-tae	.	.	.	.	.	.	.	.	.	.	.	.	8a\	-tae	.	.	.	.	.
*	*Xij	*	*	*	*	*	*	*Xij	*	*	*	*	*	*	*	*	*	*	*	*	*	*Xij	*	*	*	*	*
!LO:LB;g=original	!	!	!	!	!	!	!	!	!	!	!	!	!	!	!	!	!	!	!	!	!LO:LB:g=original	!	!	!	!	!	!
4.A\	Vir-	.	.	.	.	.	4.d\	Vir-	.	.	.	.	.	4.e\	.	.	.	.	.	.	4.a\	Vir-	.	.	.	.	.
8A\	-gi-	.	.	.	.	.	8c#X\	-gi-	.	.	.	.	.	8e\	-gi-	.	.	.	.	.	8a\	-gi-	.	.	.	.	.
=28	=28	=28	=28	=28	=28	=28	=28	=28	=28	=28	=28	=28	=28	=28	=28	=28	=28	=28	=28	=28	=28	=28	=28	=28	=28	=28	=28
4D/	-nis	.	.	.	.	.	4d\	-nis	.	.	.	.	.	4f#X\	-nis	.	.	.	.	.	4a\	-nis	.	.	.	.	.
4BB-/	me-	.	.	.	.	.	4d\	me-	.	.	.	.	.	4g\	me-	.	.	.	.	.	4b-\	me-	.	.	.	.	.
4.D/	-mo-	.	.	.	.	.	4.d\	-mo-	.	.	.	.	.	4.g\	-mo-	.	.	.	.	.	4.a\	-mo-	.	.	.	.	.
8D/	-ri-	.	.	.	.	.	8d\	-ri-	.	.	.	.	.	8f#X\	-ri-	.	.	.	.	.	8a\	-ri-	.	.	.	.	.
=29	=29	=29	=29	=29	=29	=29	=29	=29	=29	=29	=29	=29	=29	=29	=29	=29	=29	=29	=29	=29	=29	=29	=29	=29	=29	=29	=29
4GG/	-am	.	.	.	.	.	4B#X\	-am	.	.	.	.	.	4g\	-am	.	.	.	.	.	4g/	-am	.	.	.	.	.
*	*ij	*	*	*	*	*	*	*ij	*	*	*	*	*	*	*ij	*	*	*	*	*	*	*ij	*	*	*	*	*
2G\	Vir-	.	.	.	.	.	2B-X\	Vir-	.	.	.	.	.	2g\	Vir-	.	.	.	.	.	2dd\	Vir-	.	.	.	.	.
4G\	-gi-	.	.	.	.	.	4A/	-gi-	.	.	.	.	.	4g\	-gi-	.	.	.	.	.	4dd\	-gi-	.	.	.	.	.
=30	=30	=30	=30	=30	=30	=30	=30	=30	=30	=30	=30	=30	=30	=30	=30	=30	=30	=30	=30	=30	=30	=30	=30	=30	=30	=30	=30
(2F\	-nis	.	.	.	.	.	2.d\	-nis	.	.	.	.	.	[2a\	-nis	.	.	.	.	.	2ff\	-nis	.	.	.	.	.
2D\)	.	.	.	.	.	.	.	.	.	.	.	.	.	2a\]	.	.	.	.	.	.	1ff\	me-	.	.	.	.	.
.	.	.	.	.	.	.	4c\	.	.	.	.	.	.	.	.	.	.	.	.	.	.	.	.	.	.	.	.
=31	=31	=31	=31	=31	=31	=31	=31	=31	=31	=31	=31	=31	=31	=31	=31	=31	=31	=31	=31	=31	=31	=31	=31	=31	=31	=31	=31
2G\	me-	.	.	.	.	.	2B#X\	me-	.	.	.	.	.	2g\	.	.	.	.	.	.	.	.	.	.	.	.	.
2C/	.	.	.	.	.	.	1c\	-mo-	.	.	.	.	.	2g\	-me-	.	.	.	.	.	2ee-X\	.	.	.	.	.	.
=32	=32	=32	=32	=32	=32	=32	=32-	=32	=32	=32	=32	=32	=32	=32	=32	=32	=32	=32	=32	=32	=32	=32	=32	=32	=32	=32	=32
2.G\	-mo-	.	.	.	.	.	.	.	.	.	.	.	.	2.g\	-mo-	.	.	.	.	.	2.dd\	-mo-	.	.	.	.	.
.	.	.	.	.	.	.	2B#X\	-ri-	.	.	.	.	.	.	.	.	.	.	.	.	.	.	.	.	.	.	.
4G\	-ri-	.	.	.	.	.	.	.	.	.	.	.	.	4f\	-ri-	.	.	.	.	.	4dd\	-ri-	.	.	.	.	.
=33	=33	=33	=33	=33	=33	=33	=33	=33	=33	=33	=33	=33	=33	=33	=33	=33	=33	=33	=33	=33	=33-	=33	=33	=33	=33	=33	=33
1C/	-am	.	.	.	.	.	1c\;<	-am	.	.	.	.	.	1e\;	-am	.	.	.	.	.	1cc\;	-am	.	.	.	.	.
*	*	*	*	*	*	*	*	*	*	*	*	*	*	*	*	*	*	*	*	*	*	*Xij	*	*	*	*	*
==	==	==	==	==	==	==	==	==	==	==	==	==	==	==	==	==	==	==	==	==	==	==	==	==	==	==	==
*-	*-	*-	*-	*-	*-	*-	*-	*-	*-	*-	*-	*-	*-	*-	*-	*-	*-	*-	*-	*-	*-	*-	*-	*-	*-	*-	*-
!!!system-decoration: [(s1,s2,s3,s4)]
!!!EED: Leszek Kubiak
!!!EST: 2021-02-27
!!!ENC:Berenika Jozajtis
!!!END:2021-02-21
